www/assets/icons/apartment.svg

<svg xmlns="http://www.w3.org/2000/svg" width="24" height="24" viewBox="0 0 24 24" fill='currentColor'><path d="M17 11V3H7v4H3v14h8v-4h2v4h8V11zM7 19H5v-2h2zm0-4H5v-2h2zm0-4H5V9h2zm4 4H9v-2h2zm0-4H9V9h2zm0-4H9V5h2zm4 8h-2v-2h2zm0-4h-2V9h2zm0-4h-2V5h2zm4 12h-2v-2h2zm0-4h-2v-2h2z"/></svg>

<svg width="24" height="24" viewBox="0 0 24 24" xmlns="http://www.w3.org/2000/svg" fill='currentColor'><path d="M17 11V3H7V7H3V21H11V17H13V21H21V11H17ZM7 19H5V17H7V19ZM7 15H5V13H7V15ZM7 11H5V9H7V11ZM11 15H9V13H11V15ZM11 11H9V9H11V11ZM11 7H9V5H11V7ZM15 15H13V13H15V15ZM15 11H13V9H15V11ZM15 7H13V5H15V7ZM19 19H17V17H19V19ZM19 15H17V13H19V15Z"/></svg>
